X:1
T: Miss Hope's Strathspey
C:
R:Strathspey
Q: 128
K:D
M:4/4
L:1/16
|:A,2|D3D F3D E3D B,3F|GG3 G3A BA3 F3d|AF3 F3D G3B A3F|EB,3 B,3C D4 D2A,2|
D3D F3D E3D B,3F|GG3 G3A BA3 F3d|AF3 F3D G3B A3F|EB,3 B,3C D4 D2A2|
d3d A3d F3d D3d|d3d f3d B4 B2c2|d3f c3A B3d A3F|G3B A3c ((3d2A2G2) ((3F2E2D2) |
d3d A3d F3d D3d|d3d f3d B4 B3c|d3f c3A B3d A3F|EB,3 B,3C D4 D2:|
